X: 35194
T: Rooskey, The
R: polka
M: 2/4
K: Gmajor
d2 de/f/|g/f/e/d/ B/A/G/A/|Be d/B/e/d/|BA AB/c/|
d2 de/f/|g/f/e/d/ B/A/G/A/|Bd g/f/g/a/|1 ba g>e:|2 ba g>d||
Bd g/f/g/a/|ba a/b/a/g/|fd fa|gf e>d|
Bd g/f/g/a/|ba a/b/a/g/|fd fa|1 g2 g>d:|2 g2 ge||

